Adwaita++/apps/symbolic/owncloud-symbolic.svg

<svg height="16" viewBox="0 0 16 16" width="16" xmlns="http://www.w3.org/2000/svg" xmlns:xlink="http://www.w3.org/1999/xlink">
  <path d="m0 0h16v16h-16z" fill="none"/>
  <path d="m11.324 11.768c-.416-.044-.84-.24-1.171-.541l-.123-.112.13-.152c.617-.723.836-1.664.601-2.58-.031-.121-.079-.274-.107-.339l-.05-.119.133-.063c.072-.034.212-.083.31-.108.154-.04.223-.046.524-.045.376.002.522.028.777.141.626.277 1.039.773 1.204 1.448.052.213.056.63.009.843-.201.901-.907 1.535-1.814 1.628-.11.011-.215.019-.233.018s-.103-.01-.19-.019zm-6.602-.055c-.497-.143-.806-.61-.741-1.122.065-.511.502-.896 1.018-.896.179 0 .204.011.228.105.111.422.354.88.624 1.177l.114.126-.058.11c-.123.232-.388.438-.652.507-.151.039-.384.036-.533-.007zm-2.125-.006c-.19-.027-.492-.136-.677-.246-.225-.133-.546-.455-.666-.667-.302-.538-.336-1.151-.094-1.711.228-.528.755-.96 1.313-1.077.14-.03.46-.064.46-.049-.001.004-.014.079-.029.166-.037.206-.038.574-.001.783.093.529.372 1.007.798 1.364l.106.088-.024.088c-.032.118-.032.419-.001.553.014.06.056.175.093.256.052.113.061.15.042.163-.369.247-.858.354-1.32.289zm4.951-.009c-.956-.171-1.747-.852-2.053-1.768-.096-.288-.121-.457-.121-.829 0-.384.019-.511.121-.827.294-.905 1.058-1.575 2.013-1.766.259-.051.677-.055.94-.008 1.095.196 1.93 1.021 2.147 2.122.051.255.047.744-.008.995-.116.53-.349.963-.72 1.338-.403.407-.88.653-1.449.746-.222.036-.659.035-.87-.003zm6.263-.068c-.164-.028-.317-.095-.447-.193-.17-.13-.175-.142-.09-.236.324-.358.529-.901.537-1.418l.003-.185.089-.012c.145-.02.349.022.524.108.248.122.433.327.526.584.062.172.063.484.001.662-.078.223-.249.438-.436.548-.208.123-.49.18-.707.142zm-10.066-1.612c-.299-.277-.505-.629-.607-1.035-.057-.229-.052-.741.009-.969.157-.58.527-1.043 1.047-1.311.304-.156.652-.24.941-.227l.137.007.042.158c.068.25.191.506.334.698l.049.066-.117.18c-.207.321-.361.747-.415 1.152-.012.094-.019.299-.015.456l.007.284h-.141c-.437 0-.843.22-1.072.582l-.057.09zm6.629-2.502c-.18-.272-.522-.614-.793-.794l-.201-.132.023-.074c.012-.042.022-.22.022-.417l.001-.343.208.011c.701.039 1.301.447 1.602 1.089.071.151.141.387.163.548l.01.072-.122.013c-.224.025-.404.078-.756.222-.012.005-.083-.083-.157-.195zm-4.618-.406c-.097-.151-.184-.344-.238-.533-.039-.133-.045-.199-.044-.49.001-.308.006-.35.054-.509.138-.449.399-.802.78-1.056.26-.174.54-.271.857-.301.786-.072 1.513.334 1.863 1.04.138.278.191.515.189.845-.001.266-.019.378-.059.372-.015-.002-.131-.039-.256-.082-.306-.105-.558-.146-.899-.145-.709 0-1.312.222-1.865.686-.1.084-.205.183-.233.22s-.057.067-.064.067c-.007-.001-.045-.052-.085-.114zm-1.764-.635c-.051-.099-.09-.28-.09-.417.001-.429.283-.807.697-.932.236-.072.614-.028.776.089.036.027.036.032-.018.185-.073.21-.11.43-.111.659v.19l-.233.012c-.272.014-.543.078-.782.182-.089.04-.172.076-.185.082s-.037-.017-.054-.05z" fill="#474747"/>
</svg>

<svg xmlns="http://www.w3.org/2000/svg" style="isolation:isolate" width="16" height="16" viewBox="0 0 16 16">
 <defs>
  <style id="current-color-scheme" type="text/css">
   .ColorScheme-Text { color:#444; } .ColorScheme-Highlight { color:#5294e2; }
  </style>
  <linearGradient id="arrongin" x1="0%" x2="0%" y1="0%" y2="100%">
   <stop offset="0%" style="stop-color:#dd9b44"/>
   <stop offset="100%" style="stop-color:#ad6c16"/>
  </linearGradient>
  <linearGradient id="aurora" x1="0%" x2="0%" y1="0%" y2="100%">
   <stop offset="0%" style="stop-color:#09D4DF"/>
   <stop offset="100%" style="stop-color:#9269F4"/>
  </linearGradient>
  <linearGradient id="fitdance" x1="0%" x2="0%" y1="0%" y2="100%">
   <stop offset="0%" style="stop-color:#1AD6AB"/>
   <stop offset="100%" style="stop-color:#329DB6"/>
  </linearGradient>
  <linearGradient id="oomox" x1="0%" x2="0%" y1="0%" y2="100%">
   <stop offset="0%" style="stop-color:#efefe7"/>
   <stop offset="100%" style="stop-color:#8f8f8b"/>
  </linearGradient>
  <linearGradient id="rainblue" x1="0%" x2="0%" y1="0%" y2="100%">
   <stop offset="0%" style="stop-color:#00F260"/>
   <stop offset="100%" style="stop-color:#0575E6"/>
  </linearGradient>
  <linearGradient id="sunrise" x1="0%" x2="0%" y1="0%" y2="100%">
   <stop offset="0%" style="stop-color:#FF8501"/>
   <stop offset="100%" style="stop-color:#FFCB01"/>
  </linearGradient>
  <linearGradient id="telinkrin" x1="0%" x2="0%" y1="0%" y2="100%">
   <stop offset="0%" style="stop-color:#b2ced6"/>
   <stop offset="100%" style="stop-color:#6da5b7"/>
  </linearGradient>
  <linearGradient id="60spsycho" x1="0%" x2="0%" y1="0%" y2="100%">
   <stop offset="0%" style="stop-color:#df5940"/>
   <stop offset="25%" style="stop-color:#d8d15f"/>
   <stop offset="50%" style="stop-color:#e9882a"/>
   <stop offset="100%" style="stop-color:#279362"/>
  </linearGradient>
  <linearGradient id="90ssummer" x1="0%" x2="0%" y1="0%" y2="100%">
   <stop offset="0%" style="stop-color:#f618c7"/>
   <stop offset="20%" style="stop-color:#94ffab"/>
   <stop offset="50%" style="stop-color:#fbfd54"/>
   <stop offset="100%" style="stop-color:#0f83ae"/>
  </linearGradient>
  <clipPath id="_clipPath_xtVpUvcAjuRgd7TxCoaurLSRQJCTnGx7">
   <rect width="16" height="16"/>
  </clipPath>
 </defs>
 <g clip-path="url(#_clipPath_xtVpUvcAjuRgd7TxCoaurLSRQJCTnGx7)">
  <rect fill-opacity="0" width="16" height="16"/>
  <path style="fill:currentColor" class="ColorScheme-Text" d="M 11.324 11.768 C 10.908 11.724 10.484 11.528 10.153 11.227 L 10.03 11.115 L 10.16 10.963 C 10.777 10.24 10.996 9.299 10.761 8.383 C 10.73 8.262 10.682 8.109 10.654 8.044 L 10.604 7.925 L 10.737 7.862 C 10.809 7.828 10.949 7.779 11.047 7.754 C 11.201 7.714 11.27 7.708 11.571 7.709 C 11.947 7.711 12.093 7.737 12.348 7.85 C 12.974 8.127 13.387 8.623 13.552 9.298 C 13.604 9.511 13.608 9.928 13.561 10.141 C 13.36 11.042 12.654 11.676 11.747 11.769 C 11.637 11.78 11.532 11.788 11.514 11.787 C 11.496 11.786 11.411 11.777 11.324 11.768 L 11.324 11.768 Z M 4.722 11.713 C 4.225 11.57 3.916 11.103 3.981 10.591 C 4.046 10.08 4.483 9.695 4.999 9.695 C 5.178 9.695 5.203 9.706 5.227 9.8 C 5.338 10.222 5.581 10.68 5.851 10.977 L 5.965 11.103 L 5.907 11.213 C 5.784 11.445 5.519 11.651 5.255 11.72 C 5.104 11.759 4.871 11.756 4.722 11.713 L 4.722 11.713 Z M 2.597 11.707 C 2.407 11.68 2.105 11.571 1.92 11.461 C 1.695 11.328 1.374 11.006 1.254 10.794 C 0.952 10.256 0.918 9.643 1.16 9.083 C 1.388 8.555 1.915 8.123 2.473 8.006 C 2.613 7.976 2.933 7.942 2.933 7.957 C 2.932 7.961 2.919 8.036 2.904 8.123 C 2.867 8.329 2.866 8.697 2.903 8.906 C 2.996 9.435 3.275 9.913 3.701 10.27 L 3.807 10.358 L 3.783 10.446 C 3.751 10.564 3.751 10.865 3.782 10.999 C 3.796 11.059 3.838 11.174 3.875 11.255 C 3.927 11.368 3.936 11.405 3.917 11.418 C 3.548 11.665 3.059 11.772 2.597 11.707 L 2.597 11.707 Z M 7.548 11.698 C 6.592 11.527 5.801 10.846 5.495 9.93 C 5.399 9.642 5.374 9.473 5.374 9.101 C 5.374 8.717 5.393 8.59 5.495 8.274 C 5.789 7.369 6.553 6.699 7.508 6.508 C 7.767 6.457 8.185 6.453 8.448 6.5 C 9.543 6.696 10.378 7.521 10.595 8.622 C 10.646 8.877 10.642 9.366 10.587 9.617 C 10.471 10.147 10.238 10.58 9.867 10.955 C 9.464 11.362 8.987 11.608 8.418 11.701 C 8.196 11.737 7.759 11.736 7.548 11.698 L 7.548 11.698 Z M 13.811 11.63 C 13.647 11.602 13.494 11.535 13.364 11.437 C 13.194 11.307 13.189 11.295 13.274 11.201 C 13.598 10.843 13.803 10.3 13.811 9.783 L 13.814 9.598 L 13.903 9.586 C 14.048 9.566 14.252 9.608 14.427 9.694 C 14.675 9.816 14.86 10.021 14.953 10.278 C 15.015 10.45 15.016 10.762 14.954 10.94 C 14.876 11.163 14.705 11.378 14.518 11.488 C 14.31 11.611 14.028 11.668 13.811 11.63 L 13.811 11.63 Z M 3.745 10.018 C 3.446 9.741 3.24 9.389 3.138 8.983 C 3.081 8.754 3.086 8.242 3.147 8.014 C 3.304 7.434 3.674 6.971 4.194 6.703 C 4.498 6.547 4.846 6.463 5.135 6.476 L 5.272 6.483 L 5.314 6.641 C 5.382 6.891 5.505 7.147 5.648 7.339 L 5.697 7.405 L 5.58 7.585 C 5.373 7.906 5.219 8.332 5.165 8.737 C 5.153 8.831 5.146 9.036 5.15 9.193 L 5.157 9.477 L 5.016 9.477 C 4.579 9.477 4.173 9.697 3.944 10.059 L 3.887 10.149 L 3.745 10.018 Z M 10.374 7.516 C 10.194 7.244 9.852 6.902 9.581 6.722 L 9.38 6.59 L 9.403 6.516 C 9.415 6.474 9.425 6.296 9.425 6.099 L 9.426 5.756 L 9.634 5.767 C 10.335 5.806 10.935 6.214 11.236 6.856 C 11.307 7.007 11.377 7.243 11.399 7.404 L 11.409 7.476 L 11.287 7.489 C 11.063 7.514 10.883 7.567 10.531 7.711 C 10.519 7.716 10.448 7.628 10.374 7.516 L 10.374 7.516 Z M 5.756 7.11 C 5.659 6.959 5.572 6.766 5.518 6.577 C 5.479 6.444 5.473 6.378 5.474 6.087 C 5.475 5.779 5.48 5.737 5.528 5.578 C 5.666 5.129 5.927 4.776 6.308 4.522 C 6.568 4.348 6.848 4.251 7.165 4.221 C 7.951 4.149 8.678 4.555 9.028 5.261 C 9.166 5.539 9.219 5.776 9.217 6.106 C 9.216 6.372 9.198 6.484 9.158 6.478 C 9.143 6.476 9.027 6.439 8.902 6.396 C 8.596 6.291 8.344 6.25 8.003 6.251 C 7.294 6.251 6.691 6.473 6.138 6.937 C 6.038 7.021 5.933 7.12 5.905 7.157 C 5.877 7.194 5.848 7.224 5.841 7.224 C 5.834 7.223 5.796 7.172 5.756 7.11 Z M 3.992 6.475 C 3.941 6.376 3.902 6.195 3.902 6.058 C 3.903 5.629 4.185 5.251 4.599 5.126 C 4.835 5.054 5.213 5.098 5.375 5.215 C 5.411 5.242 5.411 5.247 5.357 5.4 C 5.284 5.61 5.247 5.83 5.246 6.059 L 5.246 6.249 L 5.013 6.261 C 4.741 6.275 4.47 6.339 4.231 6.443 C 4.142 6.483 4.059 6.519 4.046 6.525 C 4.033 6.531 4.009 6.508 3.992 6.475 L 3.992 6.475 Z"/>
 </g>
</svg>
